X:1
T:The Prodigal
T:The Prodigal
T:R. B. Mahaffey
T:R. B. Mahaffey, 1880
T:Public Domain Courtesy of the Cyber Hymnal™
T:Public Domain Courtesy of the Cyber Hymnal™
C:R. B. Mahaffey
Z:Public Domain
Z:Courtesy of the Cyber Hymnal™
%%score ( 1 2 ) ( 3 4 )
L:1/8
Q:1/4=82
M:6/8
K:D
V:1 treble 
V:2 treble 
V:3 bass 
V:4 bass 
V:1
"^Duet, Deliberately" [FA] | [FA][^E^G][=E=G] [DF]2 [DF] | [DF][EG][FA] [GB]2 [GB] | %3
w: 1.~The|won- der- ful love the|fa- ther be- stowed On|
w: 2.~A-|way from your home and|kind- ness so dear, You|
w: 3.~Oh,|come and en- joy the|boun- ti- ful feast, The|
 [FA][GB][FA] [EG]2 [EG] | [EG][FA][EG] [DF]2 [FA] | [FA][^E^G][=E=G] [DF]2 [DF] | %6
w: him who re- turned from|world- ly em- brace, Doth|plain- ly fore- show how|
w: long have re- mained ’mid|hun- ger and cold; There’s|shel- ter and bread e-|
w: par- don and love, the|mer- cy and grace; Thro’|Je- sus a- lone, who|
 [DF][EG][FA] [GB]2 [GB] | [Bd][Ac][GB] [FA]2 [DF] | [FA][EG][CE] D2 ||"^Refrain" [FA] | %10
w: Christ will re- ceive The|pen- i- tent soul that|trusts in His grace.||
w: nough, and to spare, Come|hast- en a- way, and|en- ter the fold.|Oh,|
w: died to re- deem The|fall- en and lost, the|sin- ru- ined race.||
 [GB][G^A][GB] [Gd]2 [GB] | [GB][FA][^E^G] [FA]2 [FA] | [FA][EG][DF] [EG]2 [GB] | %13
w: |||
w: pro- di- gal, turn from|fol- ly and vice, Oh,|wan- der no more in|
w: |||
 [GB][FA][EG] [DF]2 [FA] | [GB][G^A][GB] [Gd]2 [GB] | [GB][FA][^E^G] [FA]2 [FA] | %16
w: |||
w: sor- row and shame; Re-|pent of your sins, a-|rise and re- turn, The|
w: |||
 [FA][EG][DF] [EG]2 [GB] | [GA][GB][Gc] [Fd]2 |] %18
w: ||
w: Fa- ther a- waits the|lost to re- claim.|
w: ||
V:2
 x | x6 | x6 | x6 | x6 | x6 | x6 | x6 | x3 D2 || x | x6 | x6 | x6 | x6 | x6 | x6 | x6 | x5 |] %18
V:3
 z | [D,D]2 z [D,A,]2 z | [D,D]2 z [G,D]2 z | [D,D]2 z A,2 z | [A,,A,]2 z [D,A,]2 z | %5
 [D,D]2 z [D,A,]2 z | [D,D]2 z [G,D]2 z | [G,D]2 z [D,D]2 z | [A,,A,]2 [A,,G,] [D,F,]2 || [D,D] | %10
 [G,D][G,C][G,D] [G,B,]2 [G,D] | [D,D][D,D][D,D] [D,D]2 [D,D] | [A,D]A,A, [A,,A,]2 [A,,C] | %13
 [D,D][D,D][D,A,] [D,A,]2 [D,D] | [G,D][G,C][G,D] [G,B,]2 [G,D] | [D,D][D,D][D,D] [D,D]2 [D,D] | %16
 [A,D]A,A, [A,,A,]2 [A,,C] | [A,,C][A,,D][A,,E] [D,D]2 |] %18
V:4
 x | x6 | x6 | x6 | x6 | x6 | x6 | x6 | x5 || x | x6 | x6 | x A,A, x3 | x6 | x6 | x6 | x A,A, x3 | %17
 x5 |] %18

